X:1
T:The Minstrel Boy
M:4/4
L:1/8
K:Eb
 B,| E3 FA-G FE| G2 B2 e2 de| c2 B2G-AB-G| F4 E z| B,2| E3 FA-G FE|\
 G2 B2 e2 de| c2 B2G-AB-G| F4 E2| z2| e2 d2 c2 de| d2 c2 B2 z =B| c2 G2 G2 =B2|\
 c2- d2 e2| z e| E3 FA-GF-E| G2 B2 e2d-e| c2 B2G-AB-G| F4 E2||

